src/ui/assets/favicon/favicon.svg

<svg fill="none" viewBox="0 0 122 122" xmlns="http://www.w3.org/2000/svg"><rect fill="#ffd635" height="104" rx="18" width="104" x="16" y="9"/><rect height="104" rx="18" stroke="#000" stroke-width="4" width="104" x="16" y="9"/><path d="m110.944 55.1744c1.136-5.9402-2.302-11.5886-7.677-12.616-5.3753-1.0273-10.6532 2.9554-11.7885 8.8957-1.1354 5.9403 2.3019 11.5886 7.6772 12.616 5.3753 1.0273 10.6533-2.9554 11.7883-8.8957z" fill="#51e9f4"/><path d="m94.2957 61.0651c.2548-.064.7962.3519 1.6666.7997 1.0451.5554 2.1815.9166 3.3544 1.0663 1.3273.1641 2.6733-.0081 3.9173-.5012 1.005-.3924 1.919-.9875 2.685-1.7486.997-1.0715 1.772-2.331 2.281-3.7057.508-1.3746.74-2.8369.681-4.3021-.02-1.3765-.366-2.7284-1.008-3.9445s-1.563-2.2616-2.686-3.0503c-.893-.5765-1.905-.9397-2.96-1.0617-1.054-.122-2.123.0004-3.1226.358-2.032.7546-3.7219 2.2248-4.7556 4.1372-1.0351 1.8497-1.5178 3.9597-1.3906 6.0777.065.9868.2541 1.9612.5626 2.9003.317.8769.7338 1.7142 1.242 2.4951-1.0818-.2941-2.0716-.8591-2.8768-1.6421-.971-.9547-1.7212-2.1123-2.1973-3.3907-.884-2.156-.9182-4.5692-.0956-6.7496 1.1661-2.4665 3.0071-4.5486 5.3077-6.0031 2.0829-1.3272 4.5351-1.9477 6.9952-1.77 2.251.203 4.378 1.1219 6.072 2.623 1.559 1.3849 2.72 3.1629 3.365 5.1501.608 1.8505.804 3.8125.573 5.7473-.229 1.8314-.84 3.5936-1.794 5.1714-.902 1.5085-2.142 2.786-3.619 3.732-1.396.8886-2.991 1.4127-4.639 1.5248-.857.0643-1.718-.015-2.5479-.2346-.8795-.241-1.7146-.6226-2.4733-1.1303-1.0133-.6625-1.8775-1.5306-2.5371-2.5484z" fill="#000"/><path d="m33.5589 43.5119c.842-5.7433-.3064-10.6676-2.565-10.9987-2.2587-.3311-4.7722 4.0563-5.6141 9.7996-.842 5.7434.3065 10.6677 2.5651 10.9988s4.7721-4.0564 5.614-9.7997z" fill="#51e9f4"/><path d="m33.6522 42.9982c-.3228-.2404-.178-2.0279-.345-4.0559-.0684-1.0138-.2436-2.0188-.5232-3.0002-.175-.7605-.5287-1.4748-1.0352-2.0906-.1244-.1344-.2757-.2445-.4452-.3241-.136-.0586-.2845-.0872-.4342-.0836-.0996.0124-.1954.0438-.2816.0924-.0861.0485-.1608.1131-.2193.1898-.2719.2589-.511.5466-.7124.8572-.5067.8054-.9173 1.6608-1.2244 2.5507-.656 1.8901-1.0598 3.8494-1.2022 5.8329-.1646 1.8538-.0711 3.7198.2783 5.5508.0891.3795.2043.7531.3451 1.1185.0564.147.1233.2902.2003.4286.0236.0605.0574.117.1002.1673s.1225.1359.1893.1463c.6035-.3708 1.1189-.8548 1.5138-1.4216.4851-.646.9203-1.3237 1.3024-2.028.7145-1.3319 1.3499-2.6999 1.9034-4.0978.7884 1.6362 1.0885 3.4428.8682 5.2268-.0799 1.6606-.7816 3.2413-1.9813 4.4636-.3724.3084-.7707.5881-1.1911.8362-.282.153-.576.2858-.8793.3973-.29.1071-.5928.1808-.9017.2195-.7242.0822-1.4584-.0338-2.114-.3343-.6557-.3004-1.2049-.7724-1.5815-1.3592-.1246-.1755-.2326-.3608-.3228-.554-.1709-.3384-.3159-.6877-.4341-1.0453-.1885-.6548-.3225-1.3224-.4008-1.9966-.2296-2.381-.1399-4.7797.2672-7.1397.3129-2.1319.8997-4.2204 1.7476-6.2198.4143-.98.9766-1.8988 1.6697-2.7283.1834-.2197.3883-.4227.6122-.6063.252-.2217.5281-.4179.8237-.5854.6364-.3233 1.362-.4581 2.0815-.3868.8371.1645 1.5814.6106 2.0927 1.2544.4012.4918.7203 1.0382.9461 1.6203.3759.988.5862 2.0247.6234 3.0733.057 1.2023-.0895 2.4055-.4341 3.5646-.2289.8439-.5305 1.669-.9017 2.467z" fill="#000"/><path d="m18 75.266c.1546-1.0997 6.1409-2.1334 8.1731-3.299 3.6227-2.0234 7.5767-3.8819 10.36-6.3892 1.2039-1.0447 2.3415-2.2764 3.7221-3.563 1.4203-1.3974 3.039-2.5793 4.8045-3.508 3.0589-1.6083 6.6331-1.9444 9.9403-.9347-1.1928 1.3636-2.5182 2.6832-3.5454 3.7719-1.0271 1.0887-1.8445 1.8805-2.4961 1.9575-2.5955.2639-4.9039 1.9904-7.0466 3.7169-2.0269 1.69-4.1835 3.2196-6.4501 4.5747-3.6405 2.295-7.7288 3.7943-11.9946 4.3987-1.85.0574-3.6969-.1878-5.4672-.7258z" fill="#fff"/><path d="m69.2734 98.1765c6.6787-3.9207 13.0876-10.1147 19.0326-15.4412.4716-.3272.8675-.7552 1.16-1.254.2926-.4988.4748-1.0566.534-1.6344-.0826-.6212-.3259-1.209-.7051-1.703-.3792-.4941-.8806-.8766-1.4528-1.1085-1.9205-1.0982-3.9705-1.6912-5.9019-2.7126-3.1073-1.6364-4.9739-4.7115-7.2397-7.5559-2.7342-3.561-6.1242-6.5453-9.9803-8.7859-7.7792-4.3161-16.5079-3.7889-24.19.5711-2.87 1.6254-5.4811 3.8438-8.2972 5.612-7.1966 4.5687-24.89133 3.8109-29.7466 11.9049-1.737113 2.8554 1.5321 6.227 4.24027 7.5888l16.18423 8.138c7.4016 3.712 14.8787 7.446 22.7658 9.2032 7.8872 1.757 16.3893 1.428 23.5967-2.8225z" fill="#f60"/><g fill="#000"><path d="m69.3645 98.4366c-1.5284 1.2862-3.2974 2.2504-5.202 2.8344-3.9022 1.353-8.0298 1.921-12.1489 1.672-4.7306-.313-9.3953-1.285-13.8614-2.888-4.3081-1.4881-8.0346-3.1603-10.7164-4.3439-4.7174-2.0522-9.5102-4.2783-14.4323-6.5151l-3.69417-1.7157-1.85249-.8687-.92624-.4343-.4739-.228-.53851-.2715c-1.47375-.7811-2.77745-1.8518-3.83423-3.149-.60842-.7315-1.075975-1.5711-1.3786-2.4757-.3752953-1.0857-.405412-2.2624-.08616-3.3662.065276-.2885.170412-.5663.312335-.8253.102243-.2403.228554-.4696.376963-.6841.225692-.3793.477622-.7422.753922-1.0858.52585-.664 1.12171-1.2684 1.7771-1.8026 1.22268-1.0122 2.57367-1.8557 4.01732-2.5083 2.66786-1.1818 5.44116-2.1052 8.28236-2.758l7.97-1.8569c2.3954-.4999 4.7185-1.3025 6.9146-2.3889.3661-.2063.84-.5103 1.2924-.8144l1.3678-.9555 2.8218-2.0306c2.0148-1.4635 4.1816-2.7014 6.4622-3.6919 4.5649-2.0327 9.605-2.7288 14.5439-2.0087 4.9389.7202 9.5769 2.8274 13.3835 6.0807 1.793 1.4646 3.4479 3.093 4.9436 4.8646 1.4971 1.7265 2.7572 3.5833 3.9419 5.1144 1.0185 1.4373 2.3247 2.6433 3.8342 3.5399 1.5617.8578 3.5004 1.5311 5.4498 2.6169.5689.3025 1.1034.6666 1.594 1.0859l.3878.3801c.1483.1591.2885.3258.42.4994.2479.3373.4574.7015.6247 1.0859.31.7861.3885 1.6458.2261 2.4758-.1812.8004-.5506 1.5452-1.077 2.1717-.3819.4606-.8076.8824-1.2709 1.2596l-1.077.9121-2.1541 1.7917c-5.6651 4.7452-11.1365 9.0778-16.6616 11.8576 4.3081-3.7028 9.5532-9.4905 14.7122-15.0283l1.9387-2.0306c.3231-.3366.6677-.6732.8724-.923.1554-.1639.2795-.3553.3661-.5646.0057-.0545-.0033-.1094-.0261-.1591-.0227-.0497-.0584-.0923-.1031-.1232s-.0646-.0001-.14-.0869c-.1866-.1307-.3849-.2434-.5924-.3366-2.4018-1.151-5.2559-1.9111-7.2053-3.4205-1.666-1.3276-3.1191-2.9061-4.3081-4.68-1.0771-1.5854-2.0679-3.0296-3.1557-4.3435-2.0889-2.6661-4.5998-4.9665-7.4315-6.8083-2.7527-1.7527-5.8578-2.8655-9.0902-3.2576-3.1723-.3529-6.3827-.0311-9.424.9447-3.0009.9899-5.8259 2.4561-8.3685 4.3435-1.3032.9012-2.6064 1.8459-3.9635 2.7254-.6909.4588-1.4104.8723-2.154 1.2379-.7433.3444-1.5057.6453-2.2833.9013-2.9545.9241-5.9567 1.6854-8.9932 2.2803-2.8654.5711-5.6984 1.2961-8.487 2.1717-2.59032.7393-4.97547 2.0736-6.96843 3.8982-.42503.445-.80395.9326-1.13088 1.4551-.22533.3823-.31992.8287-.26926 1.2705.2262 1.0743.8025 2.0414 1.63708 2.7472.43558.4056.90796.7692 1.41091 1.0858.52162.327 1.06502.6173 1.62632.8687l3.59726 1.7374 7.0007 3.377c9.1979 4.4303 17.5556 8.8932 25.9026 11.1952 4.6894 1.3571 9.5716 1.9121 14.443 1.6401 3.5587-.262 7.0404-1.1744 10.2748-2.6934z"/><path d="m84 80.7388c0 .4839-2.1454 2.843-5.2883 5.0408-.7616.5747-1.5983 1.099-2.4242 1.6131-.826.5142-1.6948 1.0082-2.5208 1.4518s-1.6412.8267-2.3706 1.1896c-.7294.363-1.4052.6554-1.9737.9175-2.0572.9433-4.2145 1.68-6.4361 2.1978-2.3493.5229-4.7516.8068-7.1654.8469-4.864.0677-9.6919-.7932-14.1915-2.5305-3.7544-1.3913-7.1118-3.1052-10.3728-4.4058-3.1411-1.2731-6.4067-2.2556-9.7506-2.9337-5.7558-1.1191-11.66208-1.3879-17.506-.7965 2.4265-1.7927 5.24839-3.0534 8.2596-3.6899 2.6016-.6727 5.3258-.817 7.9914-.4235 3.0821.7086 6.1016 1.6388 9.0319 2.7826 2.6727 1.0645 5.2862 2.2557 7.8305 3.5689 2.3139 1.193 4.6952 2.2666 7.1333 3.2161 1.1585.4537 2.3492.7562 3.5077 1.0889 1.1519.2761 2.3194.4915 3.4969.6452 4.3388.5566 8.7524.2892 12.9793-.7864 3.6766-.9447 7.22-2.2985 10.5551-4.0327 1.4696-.7763 3.572-1.7542 5.3634-2.7725l1.2979-.7158 1.0727-.6654z"/></g></svg>

<svg viewBox="0 0 122 122" fill="none" xmlns="http://www.w3.org/2000/svg">
  <rect x="16" y="9" width="104" height="104" rx="18" fill="#FFD635"/>
  <rect x="16" y="9" width="104" height="104" rx="18" stroke="black" stroke-width="4"/>
  <path d="M110.944 55.1744C112.08 49.2342 108.642 43.5858 103.267 42.5584C97.8917 41.5311 92.6138 45.5138 91.4785 51.4541C90.3431 57.3944 93.7804 63.0427 99.1557 64.0701C104.531 65.0974 109.809 61.1147 110.944 55.1744Z" fill="#51E9F4"/>
  <path d="M94.2957 61.0651C94.5505 61.0011 95.0919 61.417 95.9623 61.8648C97.0074 62.4202 98.1438 62.7814 99.3167 62.9311C100.644 63.0952 101.99 62.923 103.234 62.4299C104.239 62.0375 105.153 61.4424 105.919 60.6813C106.916 59.6098 107.691 58.3503 108.2 56.9756C108.708 55.601 108.94 54.1387 108.881 52.6735C108.861 51.297 108.515 49.9451 107.873 48.729C107.231 47.5129 106.31 46.4674 105.187 45.6787C104.294 45.1022 103.282 44.739 102.227 44.617C101.173 44.495 100.104 44.6174 99.1044 44.975C97.0724 45.7296 95.3825 47.1998 94.3488 49.1122C93.3137 50.9619 92.831 53.0719 92.9582 55.1899C93.0232 56.1767 93.2123 57.1511 93.5208 58.0902C93.8378 58.9671 94.2546 59.8044 94.7628 60.5853C93.681 60.2912 92.6912 59.7262 91.886 58.9432C90.915 57.9885 90.1648 56.8309 89.6887 55.5525C88.8047 53.3965 88.7705 50.9833 89.5931 48.8029C90.7592 46.3364 92.6002 44.2543 94.9008 42.7998C96.9837 41.4726 99.4359 40.8521 101.896 41.0298C104.147 41.2328 106.274 42.1517 107.968 43.6528C109.527 45.0377 110.688 46.8157 111.333 48.8029C111.941 50.6534 112.137 52.6154 111.906 54.5502C111.677 56.3816 111.066 58.1438 110.112 59.7216C109.21 61.2301 107.97 62.5076 106.493 63.4536C105.097 64.3422 103.502 64.8663 101.854 64.9784C100.997 65.0427 100.136 64.9634 99.3061 64.7438C98.4266 64.5028 97.5915 64.1212 96.8328 63.6135C95.8195 62.951 94.9553 62.0829 94.2957 61.0651V61.0651Z" fill="black"/>
  <path d="M33.5589 43.5119C34.4009 37.7686 33.2525 32.8443 30.9939 32.5132C28.7352 32.1821 26.2217 36.5695 25.3798 42.3128C24.5378 48.0562 25.6863 52.9805 27.9449 53.3116C30.2035 53.6427 32.717 49.2552 33.5589 43.5119Z" fill="#51E9F4"/>
  <path d="M33.6522 42.9982C33.3294 42.7578 33.4742 40.9703 33.3072 38.9423C33.2388 37.9285 33.0636 36.9235 32.784 35.9421C32.609 35.1816 32.2553 34.4673 31.7488 33.8515C31.6244 33.7171 31.4731 33.607 31.3036 33.5274C31.1676 33.4688 31.0191 33.4402 30.8694 33.4438C30.7698 33.4562 30.674 33.4876 30.5878 33.5362C30.5017 33.5847 30.427 33.6493 30.3685 33.726C30.0966 33.9849 29.8575 34.2726 29.6561 34.5832C29.1494 35.3886 28.7388 36.244 28.4317 37.1339C27.7757 39.024 27.3719 40.9833 27.2295 42.9668C27.0649 44.8206 27.1584 46.6866 27.5078 48.5176C27.5969 48.8971 27.7121 49.2707 27.8529 49.6361C27.9093 49.7831 27.9762 49.9263 28.0532 50.0647C28.0768 50.1252 28.1106 50.1817 28.1534 50.232C28.1534 50.232 28.1534 50.232 28.1534 50.232C28.1534 50.232 28.2759 50.3679 28.3427 50.3783C28.9462 50.0075 29.4616 49.5235 29.8565 48.9567C30.3416 48.3107 30.7768 47.633 31.1589 46.9287C31.8734 45.5968 32.5088 44.2288 33.0623 42.8309C33.8507 44.4671 34.1508 46.2737 33.9305 48.0577C33.8506 49.7183 33.1489 51.299 31.9492 52.5213C31.5768 52.8297 31.1785 53.1094 30.7581 53.3575C30.4761 53.5105 30.1821 53.6433 29.8788 53.7548C29.5888 53.8619 29.286 53.9356 28.9771 53.9743C28.2529 54.0565 27.5187 53.9405 26.8631 53.64C26.2074 53.3396 25.6582 52.8676 25.2816 52.2808C25.157 52.1053 25.049 51.92 24.9588 51.7268C24.7879 51.3884 24.6429 51.0391 24.5247 50.6815C24.3362 50.0267 24.2022 49.3591 24.1239 48.6849C23.8943 46.3039 23.984 43.9052 24.3911 41.5452C24.704 39.4133 25.2908 37.3248 26.1387 35.3254C26.553 34.3454 27.1153 33.4266 27.8084 32.5971C27.9918 32.3774 28.1967 32.1744 28.4206 31.9908C28.6726 31.7691 28.9487 31.5729 29.2443 31.4054C29.8807 31.0821 30.6063 30.9473 31.3258 31.0186C32.1629 31.1831 32.9072 31.6292 33.4185 32.273C33.8197 32.7648 34.1388 33.3112 34.3646 33.8933C34.7405 34.8813 34.9508 35.918 34.988 36.9666C35.045 38.1689 34.8985 39.3721 34.5539 40.5312C34.325 41.3751 34.0234 42.2002 33.6522 42.9982V42.9982Z" fill="black"/>
  <path d="M18 75.266C18.1546 74.1663 24.1409 73.1326 26.1731 71.967C29.7958 69.9436 33.7498 68.0851 36.5331 65.5778C37.737 64.5331 38.8746 63.3014 40.2552 62.0148C41.6755 60.6174 43.2942 59.4355 45.0597 58.5068C48.1186 56.8985 51.6928 56.5624 55 57.5721C53.8072 58.9357 52.4818 60.2553 51.4546 61.344C50.4275 62.4327 49.6101 63.2245 48.9585 63.3015C46.363 63.5654 44.0546 65.2919 41.9119 67.0184C39.885 68.7084 37.7284 70.238 35.4618 71.5931C31.8213 73.8881 27.733 75.3874 23.4672 75.9918C21.6172 76.0492 19.7703 75.804 18 75.266V75.266Z" fill="white"/>
  <path d="M69.2734 98.1765C75.9521 94.2558 82.361 88.0618 88.306 82.7353C88.7776 82.4081 89.1735 81.9801 89.466 81.4813C89.7586 80.9825 89.9408 80.4247 90 79.8469C89.9174 79.2257 89.6741 78.6379 89.2949 78.1439C88.9157 77.6498 88.4143 77.2673 87.8421 77.0354C85.9216 75.9372 83.8716 75.3442 81.9402 74.3228C78.8329 72.6864 76.9663 69.6113 74.7005 66.7669C71.9663 63.2059 68.5763 60.2216 64.7202 57.981C56.941 53.6649 48.2123 54.1921 40.5302 58.5521C37.6602 60.1775 35.0491 62.3959 32.233 64.1641C25.0364 68.7328 7.34167 67.975 2.4864 76.069C0.749287 78.9244 4.0185 82.296 6.72667 83.6578L22.9109 91.7958C30.3125 95.5078 37.7896 99.2418 45.6767 100.999C53.5639 102.756 62.066 102.427 69.2734 98.1765Z" fill="#FF6600"/>
  <path d="M69.3645 98.4366C67.8361 99.7228 66.0671 100.687 64.1625 101.271C60.2603 102.624 56.1327 103.192 52.0136 102.943C47.283 102.63 42.6183 101.658 38.1522 100.055C33.8441 98.5669 30.1176 96.8947 27.4358 95.7111C22.7184 93.6589 17.9256 91.4328 13.0035 89.196L9.30933 87.4803L7.45684 86.6116L6.5306 86.1773L6.0567 85.9493L5.51819 85.6778C4.04444 84.8967 2.74074 83.826 1.68396 82.5288C1.07554 81.7973 0.607985 80.9577 0.30536 80.0531C-0.0699353 78.9674 -0.100052 77.7907 0.2192 76.6869C0.284476 76.3984 0.389612 76.1206 0.531535 75.8616C0.633778 75.6213 0.760089 75.392 0.908498 75.1775C1.13419 74.7982 1.38612 74.4353 1.66242 74.0917C2.18827 73.4277 2.78413 72.8233 3.43952 72.2891C4.6622 71.2769 6.01319 70.4334 7.45684 69.7808C10.1247 68.599 12.898 67.6756 15.7392 67.0228L23.7092 65.1659C26.1046 64.666 28.4277 63.8634 30.6238 62.777C30.9899 62.5707 31.4638 62.2667 31.9162 61.9626L33.284 61.0071L36.1058 58.9765C38.1206 57.513 40.2874 56.2751 42.568 55.2846C47.1329 53.2519 52.173 52.5558 57.1119 53.2759C62.0508 53.9961 66.6888 56.1033 70.4954 59.3566C72.2884 60.8212 73.9433 62.4496 75.439 64.2212C76.9361 65.9477 78.1962 67.8045 79.3809 69.3356C80.3994 70.7729 81.7056 71.9789 83.2151 72.8755C84.7768 73.7333 86.7155 74.4066 88.6649 75.4924C89.2338 75.7949 89.7683 76.159 90.2589 76.5783L90.6467 76.9584C90.795 77.1175 90.9352 77.2842 91.0667 77.4578C91.3146 77.7951 91.5241 78.1593 91.6914 78.5437C92.0014 79.3298 92.0799 80.1895 91.9175 81.0195C91.7363 81.8199 91.3669 82.5647 90.8405 83.1912C90.4586 83.6518 90.0329 84.0736 89.5696 84.4508L88.4926 85.3629L86.3385 87.1546C80.6734 91.8998 75.202 96.2324 69.6769 99.0122C73.985 95.3094 79.2301 89.5217 84.3891 83.9839L86.3278 81.9533C86.6509 81.6167 86.9955 81.2801 87.2002 81.0303C87.3556 80.8664 87.4797 80.675 87.5663 80.4657C87.572 80.4112 87.563 80.3563 87.5402 80.3066C87.5175 80.2569 87.4818 80.2143 87.4371 80.1834V80.1834C87.4371 80.1834 87.3725 80.1833 87.2971 80.0965C87.1105 79.9658 86.9122 79.8531 86.7047 79.7599C84.3029 78.6089 81.4488 77.8488 79.4994 76.3394C77.8334 75.0118 76.3803 73.4333 75.1913 71.6594C74.1142 70.074 73.1234 68.6298 72.0356 67.3159C69.9467 64.6498 67.4358 62.3494 64.6041 60.5076C61.8514 58.7549 58.7463 57.6421 55.5139 57.25C52.3416 56.8971 49.1312 57.2189 46.0899 58.1947C43.089 59.1846 40.264 60.6508 37.7214 62.5382C36.4182 63.4394 35.115 64.3841 33.7579 65.2636C33.067 65.7224 32.3475 66.1359 31.6039 66.5015C30.8606 66.8459 30.0982 67.1468 29.3206 67.4028C26.3661 68.3269 23.3639 69.0882 20.3274 69.6831C17.462 70.2542 14.629 70.9792 11.8404 71.8548C9.25008 72.5941 6.86493 73.9284 4.87197 75.753C4.44694 76.198 4.06802 76.6856 3.74109 77.2081C3.51576 77.5904 3.42117 78.0368 3.47183 78.4786C3.69803 79.5529 4.27433 80.52 5.10891 81.2258C5.54449 81.6314 6.01687 81.995 6.51982 82.3116C7.04144 82.6386 7.58484 82.9289 8.14614 83.1803L11.7434 84.9177L18.7441 88.2947C27.942 92.725 36.2997 97.1879 44.6467 99.4899C49.3361 100.847 54.2183 101.402 59.0897 101.13C62.6484 100.868 66.1301 99.9556 69.3645 98.4366V98.4366Z" fill="black"/>
  <path d="M84 80.7388C84 81.2227 81.8546 83.5818 78.7117 85.7796C77.9501 86.3543 77.1134 86.8786 76.2875 87.3927C75.4615 87.9069 74.5927 88.4009 73.7667 88.8445C72.9407 89.2881 72.1255 89.6712 71.3961 90.0341C70.6667 90.3971 69.9909 90.6895 69.4224 90.9516C67.3652 91.8949 65.2079 92.6316 62.9863 93.1494C60.637 93.6723 58.2347 93.9562 55.8209 93.9963C50.9569 94.064 46.129 93.2031 41.6294 91.4658C37.875 90.0745 34.5176 88.3606 31.2566 87.06C28.1155 85.7869 24.8499 84.8044 21.506 84.1263C15.7502 83.0072 9.84392 82.7384 4 83.3298C6.4265 81.5371 9.24839 80.2764 12.2596 79.6399C14.8612 78.9672 17.5854 78.8229 20.251 79.2164C23.3331 79.925 26.3526 80.8552 29.2829 81.999C31.9556 83.0635 34.5691 84.2547 37.1134 85.5679C39.4273 86.7609 41.8086 87.8345 44.2467 88.784C45.4052 89.2377 46.5959 89.5402 47.7544 89.8729C48.9063 90.149 50.0738 90.3644 51.2513 90.5181C55.5901 91.0747 60.0037 90.8073 64.2306 89.7317C67.9072 88.787 71.4506 87.4332 74.7857 85.699C76.2553 84.9227 78.3577 83.9448 80.1491 82.9265L81.447 82.2107L82.5197 81.5453L84 80.7388Z" fill="black"/>
</svg>
